X:233
T:Old Oak Tree (reel), The 
B:CRE2.133 (Seanchrann Darach)
F:file ID: cre.2/233old_ot
L:1/8
N:I have substituted rolls for most of the single-note 
triplets.
M:C
R:reel
Q:180
K:D
FD ~D2 A,D ~D2|FGAF GEFD|E2EF GEFD|EDEF GFEG|
"5"FD ~D2 A,D ~D2|FGAF GFEd|1 cdef geag|fdec dBAG:|
[2 cdeg faec|~d2dc d||
%
|:fef|"9"fB (3BAB fa^ge|fB (3BAB faed|(3cBA eA fAeA|cdef gfeg|
"13"fB (3BAB fa^ge|fB (3BAB faed|cdeg faec|d2 dc d:|
%
ABc|"17"d2fd d2fd|c2ec c2ec|d2fd (3ded ef|gfge dcBA|
"21"d2fd d2fd|(3cBc ec (3cBc ef|gfge dcBA|cdec dBAG||

%%%

